!!!OTL@@DE: Die bekehrte Sch&auml;ferin
!!!COM: Cimarosa, D.
!!!OMD: Anmuthig
!!!LYR: Goethe
!!!LDT: 1791
!!!OCL: Erk, Ludwig
!!!GCO: Deutscher Liederschatz, Band 2
**kern	**kern	**kern
*staff3	*staff2	*staff1
*Ipiano	*Ipiano	*Ivox
*clefF4	*clefG2	*clefG2
*k[b-e-]	*k[b-e-]	*k[b-e-]
*B-:	*B-:	*B-:
*met(C)	*met(C)	*met(C)
*M4/4	*M4/4	*M4/4
4r	4r	8f/
*	*clefF4	*
.	.	8f/
=1	=1	=1
4BB-/	8r	4b-\
.	8B-\ (8d\L	.
4r	8F\	2dd\
.	8B-\ 8d\J)	.
4BB-/	8r	.
.	8B-\ (8d\L	.
4r	8F\	8cc\
.	8B-\ 8d\J)	8b-\
=2	=2	=2
4C/	8r	8a\L
.	8A\ (8e-\L	8cc\J
4r	8F\	4ee-\
.	8A\ 8e-\J)	.
4FF/	8r	4r
.	8A\ (8e-\L	.
4r	8F\	8dd\
.	8A\ 8e-\J)	8cc\
=3	=3	=3
4BBB-/ 4BB-/	8r	4.b-\
.	8B-\ (8d\L	.
4DD/ 4D/	8F\	.
.	8B-\ 8d\J)	8b-\
4FF/ 4F/	8r	8.cc\L
.	8A\ (8e-\L	.
.	.	16b-\Jk
4FF/	8F\	8.cc\L
.	8A\ 8e-\J)	.
.	.	16dd\Jk
=4	=4	=4
2BB-/	8r	4b-\
.	8B-\ (8d\L	.
.	8F\	4r
.	8B-\ 8d\J)	.
*	*clefG2	*
4BBB-/	4d/ 4f/ 4b-/	4r
4r	4r	8b-\
*	*clefF4	*
.	.	8a/
=5	=5	=5
2EE-/ 2E-/	8r	4.g/
.	8G\ 8B-\ 8e-\L	.
.	8G\ 8B-\ 8e-\	.
.	8G\ 8B-\ 8e-\J	8g/
2FF/	8r	(4f/
.	8F\ 8A\ 8e-\L	.
.	8F\ 8B-\ 8e-\	8g/)
.	8F\ 8c\ 8e-\J	8a/
=6	=6	=6
2BBB-/ 2BB-/	8r	(8cc\L
.	8F\ 8B-\ 8d\L	8b-\J)
.	8F\ 8B-\ 8d\	4b-\
.	8F\ 8B-\ 8d\J	.
2DD/ 2D/	8r	4r
.	8F\ 8B-\ 8f\L	.
.	8F\ 8B-\ 8f\	8b-\
.	8F\ 8B-\ 8f\J	8a/
=7	=7	=7
2EE-/ 2E-/	8r	4.g/
.	8G\ 8B-\ 8e-\L	.
.	8G\ 8B-\ 8e-\	.
.	8G\ 8B-\ 8e-\J	8g/
2FF/	8r	(4f/
.	8F\ 8A\ 8e-\L	.
.	8F\ 8B-\ 8e-\	8g/)
.	8F\ 8c\ 8e-\J	8a/
=8	=8	=8
4BBB-/ 4BB-/	8r	4b-\
.	8F\ 8B-\ 8d\L	.
4r	8F\ 8B-\ 8d\J	8r
.	8r	8b-\
4ryy	8FF	8a/
.	8F	4cc\
*	*clefG2	*
4r	8A'/ 8e-'/ 8f'/	.
.	8r	16b-\
.	.	16a/
=9	=9	=9
4ryy	8FF	8b-\
.	8F	4dd\
4r	8B-'/ 8d'/ 8f'/	.
.	8r	16cc\
.	.	16b-\
8FF'/	8r	16a/
.	.	16b-\
8r	8A'/ 8e-'/ 8f'/	16cc\
.	.	16dd\
8FF'/	8r	16ee-\
.	.	16cc\
8r	8c'/ 8e-'/ 8f'/	16b-\
.	.	16a/
=10	=10	=10
8BB-'/	8r	4b-\
8r	8B-'/ 8d'/ 8f'/	.
8D'\L	8r	8r
8F'\ 8B-'\ 8d'\J	8bb-\	8b-\
8FF'\L	8aa\	8a/
(8F\	4ccc\	4cc\
8A'\ 8e-'\J)	.	.
8r	16bb-\LL	16b-\
.	16aa\JJ	16a/
=11	=11	=11
8FF'\L	8bb-\	8b-\
(8F\	4ddd\	4dd\
8B-'\ 8d'\J)	.	.
8r	16ccc\LL	16cc\
.	16bb-\JJ	16b-\
8FF'\L	16aa\LL	16a/
.	16bb-\	16b-\
8F'\ 8A'\ 8e-'\J	16ccc\	16cc\
.	16ddd\JJ	16dd\
8FF'\L	16eee-\LL	16ee-\
.	16ccc\	16cc\
8F'\ 8c'\ 8e-'\J	16bb-\	16b-\
.	16aa\JJ	16a/
=12	=12	=12
8B-\ 8d\	8bb-\	4b-\
8r	8r	.
4BB-\ 4F\ 4B-\	4d/ 4b-/	4r
4r	4r	4r
==	==	==
*-	*-	*-
!!!ENC: Craig Stuart Sapp
!!!END: 2004/05/19/
!!!EFL: 207/600
